img/wordpress.svg

<svg width="110" height="126" viewBox="0 0 110 126" fill="none" xmlns="http://www.w3.org/2000/svg">
<g clip-path="url(#clip0_1_39)">
<path fill-rule="evenodd" clip-rule="evenodd" d="M51.0452 113.694C48.8585 113.477 46.6492 113.551 44.449 113.532C44.2346 113.531 44.0175 113.794 43.8021 113.934C43.9912 114.07 44.1767 114.314 44.3712 114.324C45.4025 114.381 45.7997 115.059 45.8088 116.088C45.8278 118.332 45.8531 120.579 45.7988 122.82C45.7644 124.21 45.0805 124.813 43.8202 124.573C43.1906 124.452 42.5048 124.19 42.0208 123.751C40.9297 122.763 39.9481 121.624 38.8398 120.459L39.4994 120.185C41.2201 119.458 41.981 118.326 41.8552 116.678C41.7412 115.174 40.6239 113.87 38.9303 113.71C36.7798 113.508 34.6085 113.563 32.4463 113.532C32.2825 113.529 32.117 113.741 31.9514 113.852C32.117 114.01 32.2771 114.3 32.4472 114.308C33.674 114.36 33.9707 115.207 33.9662 116.366C33.9562 118.446 33.9553 120.526 33.9635 122.606C33.9689 123.737 33.6242 124.502 32.4915 124.607C32.3024 124.626 32.1315 124.875 31.9514 125.018C32.1731 125.146 32.3929 125.38 32.6173 125.384C34.3046 125.414 35.9936 125.415 37.6809 125.382C37.8962 125.379 38.1079 125.126 38.3205 124.988L37.7551 124.584C37.3199 124.276 36.6088 124.055 36.5057 123.644C36.2614 122.672 36.3067 121.611 36.2352 120.588L36.6396 120.44C36.8992 120.762 37.1725 121.071 37.4158 121.407C38.2228 122.518 39.0027 123.652 39.8296 124.743C40.0449 125.027 40.3968 125.372 40.6836 125.37C44.2762 125.342 47.8778 125.396 51.4577 125.126C53.506 124.971 55.0983 123.655 55.7632 121.329C56.8534 117.515 54.7753 114.063 51.0452 113.694ZM36.0018 119.272V114.728C36.9065 114.591 38.3133 114.402 38.886 115.484C39.2632 116.197 39.2442 117.409 38.971 118.191C38.4825 119.586 36.9065 119.304 36.0018 119.272ZM52.8845 122.254C52.2892 123.737 50.1586 124.692 48.8404 124.107C48.5057 123.959 48.1447 123.331 48.1348 122.913C48.0714 120.201 48.1022 117.485 48.1022 114.682C49.8673 114.621 51.6369 114.437 52.7008 116.295C53.7783 118.179 53.6815 120.269 52.8845 122.254ZM88.2683 124.005C87.3763 124.31 86.1377 124.402 85.3751 123.936C83.8796 123.023 84.8458 121.244 84.5663 119.853C86.4788 119.663 86.4734 119.664 87.1365 121.446C87.1908 121.593 87.3727 121.678 87.4957 121.794C87.6052 121.579 87.8051 121.367 87.8096 121.149C87.8377 119.761 87.8323 118.371 87.8096 116.983C87.806 116.796 87.6377 116.614 87.4568 116.254C87.1447 117.029 87.1465 117.829 86.7394 118.152C86.2535 118.537 84.8558 118.512 84.8558 118.693V114.603C85.7605 114.673 86.7846 114.789 87.7662 114.793C89.0491 114.798 88.9197 116.289 89.5412 117.011L89.8154 116.874L89.6308 113.64C86.9628 113.261 80.8099 113.451 80.1712 113.974C80.3703 114.105 80.5304 114.303 80.6978 114.306C81.9245 114.325 82.2457 115.168 82.2511 116.332C82.2566 118.292 82.3 120.253 82.2629 122.213C82.2186 124.546 81.0189 125.31 79.262 123.972C78.0189 123.026 76.9939 121.724 76.1037 120.817C77.0418 119.776 78.1085 119.04 78.5699 117.982C79.4131 116.042 78.0081 113.935 75.7355 113.698C73.6583 113.483 71.5566 113.56 69.465 113.537C69.2614 113.535 69.0569 113.749 68.8525 113.862C69.0253 114.017 69.1954 114.3 69.3736 114.306C70.6112 114.354 70.8871 115.249 70.9016 116.377C70.9233 118.011 70.9351 119.644 70.936 121.277C70.9387 123.895 70.9333 123.895 68.9031 124.807L68.762 125.112C69.0425 125.215 69.2931 125.384 69.5455 125.388C71.1984 125.412 72.8504 125.413 74.5033 125.387C74.7493 125.382 74.9927 125.189 75.2379 125.082C74.999 124.906 74.7729 124.611 74.5204 124.579C73.6619 124.472 73.2882 123.899 73.2376 123.036C73.1878 122.211 73.2267 121.379 73.2267 120.216C73.6664 120.673 73.9396 120.9 74.1495 121.184C74.9873 122.321 75.8395 123.448 76.6157 124.638C77.0102 125.241 77.4472 125.421 78.0931 125.415C81.8395 125.385 85.5985 125.402 89.3467 125.396C89.6245 125.396 90.284 125.346 90.284 125.31V122.195C89.3793 122.826 89.0283 123.747 88.2683 124.005ZM73.0946 119.263V114.75C74.904 114.486 76.2828 115.175 76.3371 116.884C76.3932 118.656 75.8087 119.368 73.0946 119.263ZM20.952 110.494C20.1649 109.794 15.3863 109.849 14.7756 110.602C15.1294 110.707 15.4225 110.839 15.7256 110.878C16.6456 110.993 16.9632 111.628 16.7189 112.506C16.0151 115.043 15.2379 117.554 14.3993 120.383C14.2093 119.841 14.1251 119.629 14.06 119.408C13.2421 116.664 12.4397 113.915 11.5974 111.179C11.4689 110.761 11.1622 110.412 10.9379 110.032C10.7108 110.4 10.3987 110.735 10.2711 111.143C9.34378 114.098 8.45446 117.066 7.55337 120.031L7.31181 120.062C6.64686 117.819 5.97195 115.582 5.31785 113.334C4.79945 111.557 4.91887 111.345 6.56453 110.793C6.73552 110.733 6.87122 110.55 7.02412 110.423C6.88299 110.29 6.74185 110.043 6.59891 110.042C4.54258 110.017 2.48607 110.017 0.429734 110.041C0.285886 110.043 0.142943 110.287 0 110.418C0.113993 110.54 0.224366 110.764 0.343787 110.77C2.1731 110.869 2.62093 112.408 3.06875 113.957C4.11278 117.563 5.155 121.171 6.21169 124.774C6.33473 125.194 6.5401 125.585 6.70657 125.989L7.02683 125.967L10.3019 115.112L13.5389 126L13.9207 125.97C14.0573 125.579 14.2093 125.194 14.3296 124.797C15.4858 120.969 16.6456 117.145 17.7838 113.311C18.209 111.877 18.9002 110.839 20.3929 110.774C20.5675 110.767 20.7376 110.606 20.952 110.494ZM64.8935 110.298C62.2472 109.955 59.5503 110.093 56.8751 110.049C56.7376 110.046 56.5955 110.301 56.3431 110.543C56.6869 110.669 56.8769 110.792 57.0714 110.801C58.3579 110.859 58.9315 111.702 58.946 113.02C58.9794 116.12 58.9831 119.22 58.9433 122.32C58.9261 123.599 58.4303 124.514 57.1067 124.569C56.9031 124.578 56.7104 124.878 56.5132 125.044C56.7503 125.162 56.9846 125.379 57.2234 125.382C59.2047 125.408 61.1887 125.409 63.1709 125.38C63.398 125.377 63.6224 125.142 63.8495 125.015C63.6423 124.86 63.4469 124.59 63.2297 124.57C62.2698 124.479 61.5913 124.031 61.4891 122.91C61.367 121.585 61.3244 120.249 61.2412 118.787C62.1893 118.787 62.9981 118.855 63.7952 118.774C65.6842 118.582 67.3534 117.893 68.0301 115.691C68.7855 113.235 67.3986 110.62 64.8935 110.298ZM65.2717 116.116C64.6872 117.313 64.0476 117.57 61.3335 117.29V111.366C62.2382 111.423 64.2068 110.96 65.1658 112.527C65.8579 113.662 65.8579 114.917 65.2717 116.116ZM29.421 114.771C26.9647 112.456 23.0075 112.558 20.6155 114.943C18.3971 117.155 18.1149 120.628 19.9722 123.186C21.2804 124.988 23.0455 125.744 25.2141 125.849C25.5959 125.797 26.117 125.786 26.6091 125.647C28.9777 124.979 30.7201 123.508 31.3308 120.761C31.8718 118.326 31.0838 116.34 29.421 114.771ZM27.8305 123.246C26.2744 125.454 23.0953 124.988 21.9056 122.506C21.1076 120.842 21.0407 119.076 21.5582 117.293C22.1417 115.289 23.3395 114.304 25.1218 114.308C26.9104 114.312 28.1272 115.293 28.7081 117.275C28.9098 117.966 28.9885 118.7 29.1224 119.414L29.3251 119.561C28.8401 120.802 28.5561 122.218 27.8305 123.246ZM107.564 118.629C106.584 118.078 105.568 117.583 104.655 116.915C104.306 116.66 103.95 115.911 104.048 115.533C104.169 115.069 104.712 114.566 105.164 114.416C106.479 113.977 107.632 114.881 108.165 116.546C108.271 116.877 108.694 117.146 108.885 117.442C108.963 117.378 109.281 117.312 109.281 117.246V112.843C108.376 113.295 108.388 113.556 108.312 113.63C107.075 113.456 105.996 113.174 105.006 113.207C103.672 113.251 102.554 114.283 102.253 115.501C101.917 116.865 102.346 118.209 103.484 119.142C103.805 119.404 104.159 119.607 104.516 119.811C105.33 120.275 106.165 120.686 106.96 121.189C107.684 121.647 108.354 122.253 108.062 123.327C107.741 124.5 106.835 124.627 105.908 124.521C104.284 124.335 103.373 123.229 102.9 121.563C102.829 121.311 102.584 121.118 102.422 120.899C102.318 121.041 102.127 121.18 102.124 121.324C102.103 122.81 102.11 124.297 102.11 125.783L102.454 125.899L103.229 124.766C103.737 125.035 104.244 125.374 104.793 125.582C106.782 126.329 109.002 125.329 109.734 123.396C110.457 121.491 109.696 119.829 107.564 118.629ZM97.7758 118.613C96.891 118.119 95.9999 117.642 95.1287 117.12C94.5072 116.751 93.92 116.14 94.3271 115.381C94.6049 114.864 95.3241 114.433 95.8895 114.356C97.0919 114.193 97.9116 115.048 98.4309 116.589C98.5349 116.897 98.8009 117.138 98.9918 117.408L99.2777 117.195C99.2777 115.971 99.2795 114.749 99.2731 113.526C99.2722 113.417 99.2071 113.307 99.104 112.988L98.1287 113.88C97.9468 113.775 97.7279 113.635 97.4954 113.523C95.5964 112.614 93.3247 113.34 92.5838 115.089C91.8401 116.847 92.7158 118.709 94.7939 119.837C95.7178 120.328 96.6257 120.856 97.5162 121.418C98.1757 121.841 98.6453 122.609 98.2526 123.355C97.9613 123.91 97.2366 124.406 96.6495 124.5C95.2454 124.727 94.0222 123.794 93.417 122.302C93.284 121.972 93.2478 121.588 93.0958 121.272C93.0135 121.102 92.7765 121.025 92.61 120.908C92.5231 121.065 92.3648 121.222 92.363 121.382C92.3429 122.688 92.3424 123.995 92.3612 125.302C92.3639 125.465 92.4869 125.72 92.6018 125.761C92.7231 125.803 92.952 125.68 93.0452 125.551C93.199 125.336 93.2831 125.057 93.4333 124.725C94.0023 125.034 94.4755 125.356 94.9885 125.557C96.9517 126.332 99.2442 125.355 99.9797 123.467C100.732 121.529 99.9634 119.832 97.7758 118.613ZM55.1562 96.9072C79.1218 96.868 98.5213 75.1867 98.5204 48.4424C98.5204 22.1337 79.2104 0.465567 56.1405 0.00775359C31.9125 -0.472196 11.668 21.3932 11.6616 47.9081C11.6535 75.1847 30.9662 96.9475 55.1562 96.9072ZM55.0856 2.35518C78.094 2.34713 96.426 23.1369 96.4188 49.2302C96.4116 73.8636 77.5937 94.4723 55.1037 94.4773C32.1903 94.4823 13.7633 73.8203 13.7642 48.1244C13.7651 23.0906 32.478 2.36323 55.0856 2.35518ZM37.7207 26.6686C38.0971 28.0622 37.044 28.5481 35.924 28.6437C34.747 28.7464 33.5681 28.844 32.2011 28.9597L45.7129 73.7288C46.0377 73.1382 46.1716 72.9721 46.2304 72.7779C48.7291 64.4719 51.2424 56.1709 53.6779 47.8407C53.9004 47.081 53.7901 46.0748 53.5458 45.294C52.2575 41.1576 50.7141 37.1108 49.5841 32.924C48.8106 30.0574 47.7855 28.203 44.7403 28.5351C44.221 28.5914 43.5886 27.3498 43.0069 26.7078C43.7099 26.242 44.4074 25.3837 45.1167 25.3716C51.3202 25.266 57.5248 25.268 63.7282 25.3777C64.4384 25.3907 65.1369 26.2722 65.8407 26.7501C65.2246 27.3759 64.6936 28.3137 63.9743 28.5552C62.8199 28.9426 61.5397 28.8691 60.1583 29.006L73.6863 73.765C75.7364 66.1945 77.6426 59.2418 79.4963 52.2729C81.151 46.0507 80.1649 40.241 77.1739 34.7613C76.2747 33.1132 75.1691 31.5144 74.6607 29.7173C74.0808 27.6728 73.6004 25.3455 73.908 23.2959C74.4282 19.8205 76.8256 18.0949 80.0708 17.7649C62.3151 -0.559734 34.4167 5.99958 24.1366 25.9109C28.0938 25.7067 31.8718 25.44 35.6526 25.3837C36.3682 25.3736 37.5524 26.0448 37.7207 26.6686ZM44.7946 87.2992C44.7114 87.5678 44.7068 87.8657 44.6426 88.3124C52.2946 90.6709 59.7973 90.5009 67.4773 87.6232L55.7442 51.8835C51.9897 64.0221 48.3881 75.6597 44.7946 87.2992ZM38.8824 85.6832L21.2063 31.7558C13.2322 49.0793 19.2982 75.5107 38.8824 85.6832ZM92.3196 51.0313C92.8796 42.84 90.3401 31.4983 88.1453 29.9387C87.901 32.9512 88.0711 36.3048 87.294 39.3586C85.4646 46.5548 83.2273 53.6273 81.0723 60.7188C78.73 68.4262 76.2955 76.0993 73.8998 83.7876C85.1516 76.369 91.3353 65.4207 92.3196 51.0313Z" fill="white"/>
</g>
<defs>
<clipPath id="clip0_1_39">
<rect width="110" height="126" fill="white"/>
</clipPath>
</defs>
</svg>

<svg xmlns="http://www.w3.org/2000/svg" width="110" height="126" fill="none"><g clip-path="url(#a)"><path fill="#fff" fill-rule="evenodd" d="M51.045 113.694c-2.187-.217-4.396-.143-6.596-.162-.214-.001-.431.262-.647.402.19.136.375.38.57.39 1.03.057 1.428.735 1.437 1.764.019 2.244.044 4.491-.01 6.732-.035 1.39-.718 1.993-1.979 1.753-.63-.121-1.315-.383-1.8-.822-1.09-.988-2.072-2.127-3.18-3.292l.66-.274c1.72-.727 2.481-1.859 2.355-3.507-.114-1.504-1.231-2.808-2.925-2.968-2.15-.202-4.322-.147-6.484-.178-.163-.003-.329.209-.495.32.166.158.326.448.496.456 1.227.052 1.524.899 1.52 2.058-.01 2.08-.012 4.16-.003 6.24.005 1.131-.34 1.896-1.472 2.001-.19.019-.36.268-.54.411.221.128.44.362.665.366 1.688.03 3.377.031 5.064-.002.215-.003.427-.256.64-.394l-.566-.404c-.435-.308-1.146-.529-1.25-.94-.244-.972-.198-2.033-.27-3.056l.405-.148c.26.322.532.631.776.967.807 1.111 1.587 2.245 2.414 3.336.215.284.567.629.854.627 3.592-.028 7.194.026 10.774-.244 2.048-.155 3.64-1.471 4.305-3.797 1.09-3.814-.988-7.266-4.718-7.635Zm-15.043 5.578v-4.544c.904-.137 2.311-.326 2.884.756.377.713.358 1.925.085 2.707-.488 1.395-2.064 1.113-2.97 1.081Zm16.883 2.982c-.596 1.483-2.726 2.438-4.045 1.853-.334-.148-.695-.776-.705-1.194-.064-2.712-.033-5.428-.033-8.231 1.765-.061 3.535-.245 4.599 1.613 1.077 1.884.98 3.974.184 5.959Zm35.383 1.751c-.892.305-2.13.397-2.893-.069-1.495-.913-.53-2.692-.809-4.083 1.913-.19 1.907-.189 2.57 1.593.055.147.237.232.36.348.11-.215.31-.427.314-.645.028-1.388.022-2.778 0-4.166-.004-.187-.172-.369-.353-.729-.312.775-.31 1.575-.718 1.898-.486.385-1.883.36-1.883.541v-4.09c.904.07 1.929.186 2.91.19 1.283.005 1.154 1.496 1.775 2.218l.274-.137-.184-3.234c-2.668-.379-8.821-.189-9.46.334.2.131.36.329.527.332 1.227.019 1.548.862 1.553 2.026.006 1.96.049 3.921.012 5.881-.044 2.333-1.244 3.097-3.001 1.759-1.243-.946-2.268-2.248-3.158-3.155.938-1.041 2.005-1.777 2.466-2.835.843-1.94-.562-4.047-2.834-4.284-2.078-.215-4.18-.138-6.271-.161-.204-.002-.408.212-.612.325.172.155.342.438.52.444 1.238.048 1.514.943 1.529 2.071.021 1.634.033 3.267.034 4.9.003 2.618-.003 2.618-2.033 3.53l-.141.305c.28.103.531.272.784.276 1.652.024 3.304.025 4.957-.001.246-.005.49-.198.735-.305-.239-.176-.465-.471-.718-.503-.858-.107-1.232-.68-1.282-1.543-.05-.825-.011-1.657-.011-2.82.44.457.713.684.922.968.838 1.137 1.69 2.264 2.467 3.454.394.603.831.783 1.477.777 3.746-.03 7.505-.013 11.254-.019.278 0 .937-.05.937-.086v-3.115c-.905.631-1.256 1.552-2.016 1.81Zm-15.173-4.742v-4.513c1.809-.264 3.188.425 3.242 2.134.056 1.772-.528 2.484-3.242 2.379Zm-52.143-8.769c-.787-.7-5.566-.645-6.176.108.353.105.646.237.95.276.92.115 1.237.75.993 1.628-.704 2.537-1.481 5.048-2.32 7.877-.19-.542-.274-.754-.339-.975-.818-2.744-1.62-5.493-2.463-8.229-.128-.418-.435-.767-.66-1.147-.226.368-.538.703-.666 1.111-.927 2.955-1.817 5.923-2.718 8.888l-.241.031c-.665-2.243-1.34-4.48-1.994-6.728-.519-1.777-.4-1.989 1.247-2.541.17-.06.306-.243.46-.37-.142-.133-.283-.38-.426-.381a258.912 258.912 0 0 0-6.17-.001c-.143.002-.286.246-.429.377.114.122.224.346.344.352 1.83.099 2.277 1.638 2.725 3.187 1.044 3.606 2.086 7.214 3.143 10.817.123.42.328.811.495 1.215l.32-.022 3.275-10.855L13.539 126l.382-.03c.136-.391.288-.776.409-1.173 1.156-3.828 2.316-7.652 3.454-11.486.425-1.434 1.116-2.472 2.609-2.537.174-.007.345-.168.559-.28Zm43.942-.196c-2.647-.343-5.344-.205-8.019-.249-.137-.003-.28.252-.532.494.344.126.534.249.728.258 1.287.058 1.86.901 1.875 2.219.033 3.1.037 6.2-.003 9.3-.017 1.279-.513 2.194-1.836 2.249-.204.009-.397.309-.594.475.237.118.472.335.71.338 1.982.026 3.966.027 5.948-.002.227-.003.451-.238.678-.365-.207-.155-.402-.425-.62-.445-.96-.091-1.638-.539-1.74-1.66-.122-1.325-.165-2.661-.248-4.123.948 0 1.757.068 2.554-.013 1.89-.192 3.558-.881 4.235-3.083.755-2.456-.631-5.071-3.136-5.393Zm.378 5.818c-.585 1.197-1.224 1.454-3.939 1.174v-5.924c.905.057 2.874-.406 3.833 1.161.692 1.135.692 2.39.106 3.589Zm-35.851-1.345c-2.456-2.315-6.413-2.213-8.805.172a6.338 6.338 0 0 0-.644 8.243c1.308 1.802 3.073 2.558 5.242 2.663.382-.052.903-.063 1.395-.202 2.369-.668 4.111-2.139 4.722-4.886.54-2.435-.247-4.421-1.91-5.99Zm-1.59 8.475c-1.557 2.208-4.736 1.742-5.925-.74-.798-1.664-.865-3.43-.348-5.213.584-2.004 1.782-2.989 3.564-2.985 1.788.004 3.005.985 3.586 2.967.202.691.28 1.425.414 2.139l.203.147c-.485 1.241-.769 2.657-1.494 3.685Zm79.733-4.617c-.98-.551-1.996-1.046-2.909-1.714-.349-.255-.705-1.004-.607-1.382.121-.464.664-.967 1.116-1.117 1.315-.439 2.468.465 3.001 2.13.106.331.529.6.72.896.078-.064.396-.13.396-.196v-4.403c-.905.452-.893.713-.969.787-1.237-.174-2.316-.456-3.306-.423-1.334.044-2.452 1.076-2.753 2.294-.336 1.364.093 2.708 1.231 3.641.321.262.675.465 1.032.669.814.464 1.649.875 2.444 1.378.724.458 1.394 1.064 1.102 2.138-.321 1.173-1.227 1.3-2.154 1.194-1.624-.186-2.535-1.292-3.008-2.958-.071-.252-.316-.445-.478-.664-.104.142-.295.281-.298.425-.021 1.486-.014 2.973-.014 4.459l.344.116.775-1.133c.508.269 1.015.608 1.564.816 1.989.747 4.209-.253 4.941-2.186.723-1.905-.038-3.567-2.17-4.767Zm-9.788-.016c-.885-.494-1.776-.971-2.647-1.493-.622-.369-1.209-.98-.802-1.739.278-.517.997-.948 1.563-1.025 1.202-.163 2.022.692 2.54 2.233.105.308.37.549.562.819l.286-.213c0-1.224.001-2.446-.005-3.669 0-.109-.066-.219-.169-.538l-.975.892c-.182-.105-.401-.245-.634-.357-1.899-.909-4.17-.183-4.911 1.566-.744 1.758.132 3.62 2.21 4.748a42.274 42.274 0 0 1 2.722 1.581c.66.423 1.13 1.191.737 1.937-.292.555-1.016 1.051-1.603 1.145-1.405.227-2.628-.706-3.233-2.198-.133-.33-.17-.714-.321-1.03-.083-.17-.32-.247-.486-.364-.087.157-.245.314-.247.474a131.68 131.68 0 0 0-.002 3.92c.003.163.126.418.24.459.122.042.351-.081.444-.21.154-.215.238-.494.388-.826.57.309 1.042.631 1.555.832 1.964.775 4.256-.202 4.992-2.09.752-1.938-.017-3.635-2.204-4.854Zm-42.62-21.706c23.966-.039 43.365-21.72 43.364-48.465C98.52 22.134 79.21.466 56.14.008c-24.227-.48-44.472 21.385-44.478 47.9-.009 27.277 19.304 49.04 43.494 49Zm-.07-94.552c23.008-.008 41.34 20.782 41.333 46.875-.007 24.634-18.825 45.242-41.315 45.247-22.914.005-41.34-20.657-41.34-46.353.001-25.033 18.714-45.76 41.322-45.769ZM37.72 26.67c.376 1.393-.677 1.88-1.797 1.975-1.177.102-2.356.2-3.723.316l13.512 44.769c.325-.59.459-.757.517-.951 2.5-8.306 5.012-16.607 7.448-24.937.222-.76.112-1.766-.132-2.547-1.288-4.136-2.832-8.183-3.962-12.37-.773-2.867-1.799-4.721-4.844-4.389-.519.056-1.151-1.185-1.733-1.827.703-.466 1.4-1.324 2.11-1.336a536.328 536.328 0 0 1 18.611.006c.71.013 1.409.894 2.113 1.372-.616.626-1.147 1.564-1.867 1.805-1.154.388-2.434.314-3.816.451l13.528 44.759c2.05-7.57 3.957-14.523 5.81-21.492 1.655-6.222.669-12.032-2.322-17.512-.9-1.648-2.005-3.247-2.513-5.044-.58-2.044-1.06-4.371-.753-6.421.52-3.476 2.918-5.201 6.163-5.531C62.315-.56 34.417 6 24.137 25.91c3.957-.204 7.735-.471 11.516-.527.715-.01 1.9.66 2.068 1.285Zm7.074 60.63c-.084.269-.088.567-.152 1.013 7.652 2.359 15.154 2.189 22.834-.689l-11.733-35.74C51.99 64.023 48.388 75.66 44.794 87.3Zm-5.913-1.616L21.206 31.756c-7.974 17.323-1.908 43.755 17.676 53.927ZM92.32 51.031c.56-8.191-1.98-19.533-4.175-21.092-.244 3.012-.074 6.366-.851 9.42-1.83 7.196-4.067 14.268-6.222 21.36-2.342 7.707-4.776 15.38-7.172 23.069C85.152 76.369 91.335 65.42 92.32 51.03Z" clip-rule="evenodd"/></g><defs><clipPath id="a"><path fill="#fff" d="M0 0h110v126H0z"/></clipPath></defs></svg>
